Medica/img/ArrowLeft.svg

<svg width="8" height="19" viewBox="0 0 8 19" fill="none" xmlns="http://www.w3.org/2000/svg">
<path fill-rule="evenodd" clip-rule="evenodd" d="M6.99533 0.227278C7.10681 0.0815162 7.25597 -6.50455e-08 7.41122 -5.14725e-08C7.56648 -3.78995e-08 7.71566 0.0815162 7.82714 0.227278C7.88185 0.299089 7.92533 0.38497 7.95502 0.47983C7.98471 0.574688 8 0.676638 8 0.779604C8 0.882572 7.98471 0.984459 7.95502 1.07932C7.92533 1.17418 7.88185 1.26006 7.82714 1.33187L1.56839 9.64449L7.82524 17.6694C7.87973 17.7408 7.92304 17.8263 7.95262 17.9207C7.98221 18.0151 7.99747 18.1166 7.99747 18.2191C7.99747 18.3216 7.98221 18.4231 7.95262 18.5175C7.92304 18.6119 7.87973 18.6974 7.82524 18.7688C7.71465 18.9169 7.56514 19 7.40932 19C7.2535 19 7.104 18.9169 6.99342 18.7688L8.17884e-07 9.64449L6.99533 0.227278Z" fill="#1553A6"/>
</svg>

<svg width="8" height="19" fill="none" xmlns="http://www.w3.org/2000/svg"><path fill-rule="evenodd" clip-rule="evenodd" d="M6.995.227A.53.53 0 017.411 0a.53.53 0 01.416.227.822.822 0 01.128.253 1.008 1.008 0 010 .6.822.822 0 01-.128.252L1.568 9.644l6.257 8.025a.817.817 0 01.128.252 1.002 1.002 0 010 .596.817.817 0 01-.128.252.526.526 0 01-.416.231.526.526 0 01-.416-.231L0 9.644 6.995.227z" fill="#1553A6"/></svg>
